X:1
T:Title
%%score { ( 1 3 ) | ( 2 4 ) }
L:1/8
M:3/4
K:F
V:1 treble nm="Grand Piano"
V:3 treble 
V:2 bass 
V:4 bass 
V:1
 z2 z2[Q:1/4=108] A>G | F2 F2 G2 | A4 A>G | F2 A2 [GB]2 | [Ac]4 c>d | c2 B2 A2 | %6
 [FA]2 [EG]2 [EG][FA] | [GB]2 [Bd]2 [Ac]2 | A4 A>G | F2 F2 G2 | A4 A>G | F2 A2 [GB]2 | [Ac]4 c>d | %13
 c2 B2 A2 | [Fd]2 [DFB]2 [B,DG]2 | [A,CF]2 [CFA]3 [B,EG] |[M:2/4] [A,F]4 |[M:1/4] z z/ A/ | %18
[M:3/4] c6- | c4 z2 | B6- | B4 z2 | A6- | A2 z2 z2 | [FA]2 [EG]2 [FA]2 |[M:4/4] [GB]6 [FA]>[EG] | %26
[M:3/4] [FA]2 [GB]2 [FA]2 | [FA][EG] [EG]2 [EG]>[FA] | [GB]2 [Bd]2 [Ac]2 | [GB]A A2 A>[GB] | %30
 [Ac]2 [GB]2 [FA]2 | [Fd]6- |[M:4/4] [Fd]6 z2 |[M:7/8] [A,CF]2 [CFA]3 [B,EG]2 |[M:2/4] [A,F]4 |] %35
V:2
 z2 z2 [F,CF]>[F,B,C] | [F,A,C]2 [F,A,C]2 [F,B,C]2 | [F,CF]4 [F,CF]>[E,B,C] | %3
 [F,A,C]2 [F,CF]2 [F,C]2 | [F,C]4 [F,A,F]>[F,B,F] | [F,A,F]2 [F,DF]2 [F,CF]2 | %6
 [C,C]2 [C,C]2 [C,C]2 | [C,C]2 [C,C]2 [C,C]2 | [F,CF]4 [F,CF]>[F,B,C] | %9
 [F,A,C]2 [F,A,C]2 [F,B,C]2 | [F,CF]4 [F,CF]>[F,B,C] | [F,A,C]2 [F,CF]2 [F,C]2 | %12
 [F,C]4 [F,A,F]>[F,B,F] | [F,A,F]2 [F,DF]2 [F,CF]2 | [B,,B,]2 B,,2 B,,2 | C,2 C,3 C, |[M:2/4] F,4 | %17
[M:1/4][K:treble] F>F |[M:3/4][K:bass] A6- | A4[K:treble] z2 | G6- | G4[K:treble] z2 | F6- | %23
 F2[K:treble] z2 z2 | [C,C]2 [C,C]2 [C,C]2 |[M:4/4] [C,C]6 [C,C]>[C,C] | %26
[M:3/4] [F,C]2 [E,C]2 [F,C]2 | [C,C][C,C] [C,C]2 [C,C]>[C,C] | [C,C]2 [C,C]2 [C,C]2 | %29
 [F,C][F,CF] [F,CF]2 [F,CF]>[F,C] | [F,C]2 [E,C]2 [F,C]2 | [B,,B,]2 B,,2 B,,2 | %32
[M:4/4] B,,6 B,,>B,, |[M:7/8] C,2 C,3 C,2 |[M:2/4] F,4 |] %35
V:3
 x6 | x6 | x6 | x6 | x6 | x6 | x6 | x6 | x6 | x6 | x6 | x6 | x6 | x6 | x6 | x6 |[M:2/4] x4 | %17
[M:1/4] x2 |[M:3/4] z2 z2 C>C | C4 d>c | z2 z2 C>C | C4 c>B | z2 z2 C>C | C2 c2 A2 | x6 | %25
[M:4/4] x8 |[M:3/4] x6 | x6 | x6 | x6 | x6 | z2 B,2 B,2 |[M:4/4] B,6 [DFB]>[B,CG] |[M:7/8] x7 | %34
[M:2/4] x4 |] %35
V:4
 x6 | x6 | x6 | x6 | x6 | x6 | x6 | x6 | x6 | x6 | x6 | x6 | x6 | x6 | x6 | x6 |[M:2/4] x4 | %17
[M:1/4][K:treble] x2 |[M:3/4][K:bass] z2 z2 F,>F, | F,4[K:treble] B>A | z2 z2 C,>C, | %21
 C,4[K:treble] A>G | z2 z2 F,>F, | F,2[K:treble] [A,CF]2 [F,CF]2 | x6 |[M:4/4] x8 |[M:3/4] x6 | %27
 x6 | x6 | x6 | x6 | x6 |[M:4/4] x8 |[M:7/8] x7 |[M:2/4] x4 |] %35

